X:1
T:James Gibb editions
T:Confirma hoc Deus - Handl
T:#
%%score [ 1 2 3 4 ]
L:1/8
Q:1/4=76
M:4/4
K:A
V:1 treble-8 nm="Tenor I" snm="T I"
V:2 treble-8 nm="Tenor II" snm="T II"
V:3 bass nm="Bass I" snm="B I"
V:4 bass nm="Bass II" snm="B II"
V:1
!mf!"^moderato""^Jacob Handl\n(1550-91)""^Confirma hoc Deus" A4 E4 | F2 A4 G2 |"^," A2 c2 B3 c | %3
w: Con- fir-|ma hoc, De-|us, quod o- pe-|
 d2 c2 e2 e2 | A4 E4 |[M:4/4][K:treble-8] z2!f! e2 e2 e2 | f4 f4 |"^," e2 d2 e4 |!>(! e8!>)! | %9
w: ra- tus es in|no- bis,|quod o- pe-|ra- tus|es in no-|bis,|
 z2!mf! e4 d2 | e4 c2 A2 | B2 A2 z2 e2- | e2 d2 e2 d2 | c2 B2 A4 | z2 e4 ^d2 | e2 (c3 ^dec | %16
w: a tem-|plo san- cto|tu- o, a|* tem- plo san-|cto tu- o,|a tem-|plo san\- * * *|
 ^d2)"^," e4 d2 | e4 z2!f! B2 | B2 B4 A2 | G2 F2 E4 | e6 d2 | c2 B2"^," A2 B2 | x2 x2 x2 x2 | %23
w: * cto tu-|o, quod|est in Je-|ru- sa- lem,|in Je-|ru- sa- lem, quod||
 c4 d4- | d2 c2 B2 A2 |"^," G2 F2 E4 | x2 x2 x2 x2 | e6 d2 | c2 B2"^," A2 B2 | c4 d4- | %30
w: est in|* Je- ru- sa-|lem, quod est||in Je-|ru- sa- lem, quod|est in|
 d2 c2 B2 A2 |"^," G2"^rit."[Q:1/4=75] A2[Q:1/4=73] B2[Q:1/4=72] c2 | %32
w: * Je- ru- sa-|lem, quod est in|
[Q:1/4=70]!>(! B2[Q:1/4=68] A4[Q:1/4=66] G2!>)! | %33
w: Je- ru- sa-|
[Q:1/4=66]"^,"[Q:1/4=66][Q:1/4=66][Q:1/4=66] A2"^più vivo"!f![Q:1/4=88] B2 !>!c2 B2 | A2 E2 A2 G2 | %35
w: lem. Al- le- lu-|ia, al- le- lu-|
"^," A2 B2 c2 (d2- |"^poco rit."[Q:1/4=80] de cB/A/ !>!B4) | %37
w: ia, al- le- lu\-||
[Q:1/4=80]"^,"[Q:1/4=88][Q:1/4=80][Q:1/4=88][Q:1/4=80][Q:1/4=88][Q:1/4=80][Q:1/4=88] c2"^a tempo"[Q:1/4=88] B2 !>!c2 B2 | %38
w: ia, al- le- lu-|
 A2 E2 A2 G2 |"^," A2 B2 c2"^rit."[Q:1/4=86] (d2- | %40
w: ia, al- le- lu-|ia, al- le- lu\-|
[Q:1/4=84] d[Q:1/4=83]e[Q:1/4=81] c[Q:1/4=80]B/[Q:1/4=80]A/[Q:1/4=77] !>!B4) | %41
w: |
[Q:1/4=75] !fermata!c8 |] %42
w: ia.|
V:2
 z8 |!mf! A4 E4 | F2 A4 G2 |"^," A2!f! c2 B3 c | d2 c2"^," e2 E2 |[M:4/4][K:treble-8] (FG A4 G2) | %6
w: |Con- fir-|ma hoc, De-|us, quod o- pe-|ra- tus es in|no\- * * *|
"^," A2 F2 A2 F2 | G2 A2 B4 |!>(! c4!>)! B4 | c4 B2 A2 |"^," B2!mf! e4 ^d2 | %11
w: bis, quod o- pe-|ra- tus es|in no-|bis, in no-|bis, a tem-|
 e2 !courtesy!=d2 c2 B2 | A4 z4 | z2 e4 ^d2 |"^," e2 B4 B2 | G4"^," c2 c2 | B2"^," A2 B4- | %17
w: plo san- cto tu-|o,|a tem-|plo san- cto|tu- o, a|tem- plo san\-|
 B2 G2 F4 |"^," G2!f! G4 c2 | B2 A2 G2 F2 | E4 e4- | e2 d2 c2 B2 | x2 x2 x2 x2 | A8 | d6 c2 | %25
w: * cto tu-|o, quod est|in Je- ru- sa-|lem, in|* Je- ru- sa-||lem,|in Je-|
 B2 A2"^," G2 F2 | x2 x2 x2 x2 | E4 e4- | e2 d2 c2 B2 | A8 | d6 c2 | B2"^rit." A2"^," G2 A2 | %32
w: ru- sa- lem, quod||est in|* Je- ru- sa-|lem,|in Je-|ru- sa- lem, quod|
!>(! B2 c2 B4!>)! | c2 B2"^," A2!f! E2 | A2 G2 A2 B2 | c2 d2"^," c2 B2- | B2 (!>!A4 G2) | %37
w: est in Je-|ru- sa- lem. Al-|le- lu- ia, al-|le- lu- ia, al\-|* le\- *|
 A2 B2 z2 E2 | A2 G2 A2 B2 | c2 d2"^," c2"^rit." B2- | B2 !>!A4 G2 | !fermata!A8 |] %42
w: lu- ia, al-|le- lu- ia, al-|le- lu- ia, al\-|* le- lu-|ia.|
V:3
 z8 | z8 |!mf! A,4 E,4 | F,2 A,4 G,2 |"^," A,2!f! C2 B,3 C |[M:4/4] D2 C2 (B,3 C | %6
w: ||Con- fir-|ma hoc, De-|us, quod o- pe-|ra- tus es *|
"^," D4) C2 (B,2- | B,A, A,4 G,2) |"^," A,2 A,,2 E,4 | A,,4 z2!mf! A,2- | A,2 G,2 A,4 | %11
w: * in no\-||bis, in no-|bis, a|* tem- plo|
 G,2 F,2 (E,4 | F,4)"^," E,2 A,2- | A,2 G,2 A,4 | G,2 E,2 F,4 |"^," E,2 E,2 (A,3 G, | %16
w: san- cto tu\-|* o, a|* tem- plo|san- cto tu-|o, a tem\- *|
 F,2)"^," E,2 F,4 | G,2 E,4 ^D,2 | E,4 E,4 | z4!f! B,2 A,2 | G,2 F,2 E,4 | A,6 G,2 | x2 x2 x2 x2 | %23
w: * plo san-|cto tu- o,|quod est|in Je-|ru- sa- lem,|in Je-||
 F,2 E,2"^," D,2 C,2 | B,,8 | B,6 A,2 | x2 x2 x2 x2 | G,2 F,2 E,4 | A,6 G,2 | F,2 E,2"^," D,2 C,2 | %30
w: ru- sa- lem, quod|est|in Je-||ru- sa- lem,|in Je-|ru- sa- lem, quod|
 B,,8 | B,6"^rit." A,2 |!>(! G,2 A,2"^," B,2!>)!!f! E,2 | A,2 G,2 A,2 B,2 | !>!C2 B,2"^," A,2 E,2 | %35
w: est|in Je-|ru- sa- lem. Al-|le- lu- ia, al-|le- lu- ia, al-|
 A,2 E,2 A,2 B,2 | =G,2 F,2 E,2 z E, | A,2 !courtesy!^G,2 A,2 B,2 | !>!C2 B,2"^," A,2 E,2 | %39
w: le- lu- ia, al-|le- lu- ia, al-|le- lu- ia, al-|le- lu- ia, al-|
 A,2 E,2 A,2"^rit." B,2 | (=G,2 F,2) !>!E,4 | !fermata!E,8 |] %42
w: le- lu- ia, al-|le\- * lu-|ia.|
V:4
 z8 | z8 | z8 |!mf! A,4 E,4 | F,2 A,4 G,2 |[M:4/4]"^," A,4 E,4 | D,3 E, F,2 D,2 | E,2 F,2 E,4 | %8
w: |||Con- fir-|ma hoc, De-|us, quod|o- pe- ra- tus|es in no-|
"^," A,,2!mf! A,4 G,2 |"^," A,4 G,2 F,2 | (E,4 F,4) |"^," E,2 A,4 G,2 |"^," A,4 G,2 F,2 | %13
w: bis, a tem-|plo san- cto|tu\- *|o, a tem-|plo san- cto|
 (E,4 F,4) | E,4 B,,4 | C,4 A,,4 | B,,2 C,2 (B,,4 | E,4) B,,4 | z8 |!f! E,4 E,4 | %20
w: tu\- *|o, a|tem- plo|san- cto tu\-|* o,||quod est|
 E,2 D,2 C,2 B,,2 |"^," A,,4 A,4- | A,2 G,2 F,2 E,2 | x8 |"^," D,4 D,4 |"^," E,4 E,4- | %26
w: in Je- ru- sa-|lem, in|* Je- ru- sa-||lem, quod|est in|
 E,2 D,2 C,2 B,,2 |"^," A,,4 A,4- | x8 | A,2 G,2 F,2 E,2 |"^," D,4 D,4 |"^," E,4"^rit." E,4 | %32
w: * Je- ru- sa-|lem, in||* Je- ru- sa-|lem, quod|est in|
!>(! E,4 E,3 E,!>)! |"^," A,,2!f! E,2 A,2 G,2 | A,2 B,2 !>!C2 B,2 |"^," A,6 =G,2- | G,2 A,2 E,4 | %37
w: Je- ru- sa-|lem. Al- le- lu-|ia, al- le- lu-|ia, al\-|* le- lu-|
"^," A,,2 E,2 A,2 !courtesy!^G,2 | A,2 B,2 !>!C2 B,2 | A,6"^rit." =G,2- | G,2 A,2 !>!E,4 | %41
w: ia, al- le- lu-|ia, al- le- lu-|ia, al\-|* le- lu-|
 !fermata!A,,8 |] %42
w: ia.|

